X: 1205
T: An Dara Pholca Dáiligh
R: polka
M: 2/4
K: Dmajor
|:FA GB|Ad fd|cd eA|FA dA|
FA GB|Ad fd|cd ec|ed d2:|
|:dc B/c/d/B/|AF FE/F/|GF EF/G/|FD DA|
dc B/c/d/B/|AF F^G/A/|Be ec|ed d2:|

